X: 2
T: Neckbelly
R: reel
M: 4/4
L: 1/8
K: Dmaj
|:A3B ~A3B|AGFE FDFG|ADBD ADBD|AGFD EFGB||AGFG AGFG|AGFE FDFG|Ad~d2 dABd|1AGFE D2FG:|2AGFE D2ed|||:ef~f2 f2ef|edBA B2de|dBAF ~A3B|ABdf efde||f2ed f2ed|edBA ~B2de|dBAF ~A3B|1ABde d2de:|2dBAF D4|||:B4 B4|AFEF D2A,D|B,D~D2 DFAB|ABde fdef||dB~B2 B2dB|AFEF D2A,D|B,D~D2 DFAB|1ABde d4:|2ABde d2FG||


Tune 8616	Setting 19569

